X:1
T:039 - A Ovelha Perdida
T:Letra: Elizabeth Clephane (1830-1869)
T:Trad.: Sarah Poulton Kalley (1825-1907)
T:Música: Ira David Sankey (1840-1908)
L:1/8
Q:1/4=95
M:6/8
K:Ab
V:1
E | "Ab"A2 A A2 A | "Eb"G2 G "Ab"A2 A | c2 c A2 A | "Eb"B3 z2 E | "Ab"A2 A A2 A | c2 c A2 A | "Bbm"B2 B "Eb"G2 G | "Ab"A3 z2 A | "C"c2 c "Fm"A2 A | "C"c2 c "Fm"A2 "(Eb)"_e | "Ab"e2 e ecA | "Eb"BAB "Ab"c2 e | e2 f ec"Ddim"A | "Ab/Eb"BHc"Eb7"B "Ab"HA2 |]
w: 1.~No-ven-tae no-veo-ve-lhas vão Se-gu-ras ao cur-ral; Mas u-ma de-las sea-fas-tou Doa-pris-co pas-to-ral, Aer-rar nos mon-tes de ter-ror, Dis-tan-te do_ fi-el_ pas-tor, Dis-tan-te do_ fi-el_ pas-tor. 
w: 2.~"Coma grei sub-mis-sa,ó bom Pas-tor, Não te con-ten-ta-rás?" "Aer-ran-teé mi-nha", re-pli-cou, "Per-ten-ce-mea fu-gaz. Vou ao de-ser-to pro-cu-rar Ao-ve-lha queou_çoem dor_ gri-tar, Ao-ve-lha queou_çoem dor_ gri-tar."
w: 3.~Ne-nhum re-mi-doi-ma-gi-nou Quão ne-graes-cu-ri-dão, Quão fun-das á-guas que pas-sou, Tra-zen-doaà sal-va-ção; E quan-do foi pra so-cor-rer, Aer-ran-tees-ta_vaa pe_re-cer, Aer-ran-tees-ta_vaa pe_re-cer.
w: 4.~"Por to-daaes-tra-da don-de vem, Que san-gueen-xer-goa-li?" "Bus-quei ao-ve-lha com a-mor, O san-gue meu ver-ti." "Fe-ri-da ve-joa tu-a mão." "Aan-gús-tiaen-cheu_meo co_ra-ção, Aan-gús-tiaen-cheu_meo co_ra-ção."
w: 5.~Vêm da mon-ta-nhaa-cla-ma-ções! Éa voz do bom Pas-tor! Res-so-aem no-tas tri-un-fais O sal-mo ven-ce-dor! Eos an-jos can-tam lá nos céus: "Aer-ran-te já_ vol-tou_ a Deus, Aer-ran-te já_ vol-tou_ a Deus."
W: 
W:
W: 1. Noventa e nove ovelhas vão
W: Seguras ao curral;
W: Mas uma delas se afastou
W: Do aprisco pastoral,
W: A errar nos montes de terror,
W: Distante do fiel pastor.
W: Distante do fiel pastor. 
W: 
W: 2. "Com a grei submissa, ó bom Pastor,
W: Não te contentarás?"
W: "A errante é minha", replicou,
W: "Pertence-me a fugaz.
W: Vou ao deserto procurar
W: A ovelha que ouço em dor gritar."
W: A ovelha que ouço em dor gritar." 
W: 
W: 3. Nenhum remido imaginou
W: Quão negra escuridão,
W: Quão fundas águas que passou,
W: Trazendo-a à salvação;
W: E quando foi pra socorrer,
W: A errante estava a perecer.
W: A errante estava a perecer. 
W: 
W: 
W: 
W: 4. "Por toda a estrada donde vem,
W: Que sangue enxergo ali?"
W: "Busquei a ovelha com amor,
W: O sangue meu verti."
W: "Ferida vejo a tua mão...
W: A angústia encheu-me o coração.
W: A angústia encheu-me o coração." 
W: 
W: 5. Vêm da montanha aclamações!
W: É a voz do bom Pastor!
W: Ressoa em notas triunfais
W: O salmo vencedor!
W: E os anjos cantam lá nos céus:
W: "A errante já voltou a Deus.
W: A errante já voltou a Deus." 
W: 
W: 





